packages/assets/static/images/icons/bold/person-simple-hike--bold.svg

<svg width="24" height="24" viewBox="0 0 24 24" xmlns="http://www.w3.org/2000/svg">
<path d="M15.1859 7.86182C15.8534 7.86182 16.5059 7.66388 17.0609 7.29303C17.6159 6.92218 18.0485 6.39507 18.304 5.77837C18.5594 5.16167 18.6262 4.48307 18.496 3.82839C18.3658 3.1737 18.0444 2.57233 17.5724 2.10033C17.1004 1.62833 16.499 1.30689 15.8443 1.17667C15.1896 1.04644 14.511 1.11328 13.8943 1.36872C13.2776 1.62417 12.7505 2.05675 12.3797 2.61177C12.0088 3.16678 11.8109 3.81931 11.8109 4.48682C11.8109 5.38192 12.1664 6.24037 12.7994 6.8733C13.4323 7.50624 14.2908 7.86182 15.1859 7.86182ZM15.1859 3.36182C15.4084 3.36182 15.6259 3.4278 15.8109 3.55141C15.9959 3.67503 16.1401 3.85073 16.2252 4.0563C16.3104 4.26187 16.3327 4.48807 16.2893 4.70629C16.2458 4.92452 16.1387 5.12498 15.9814 5.28231C15.824 5.43965 15.6236 5.54679 15.4053 5.5902C15.1871 5.63361 14.9609 5.61133 14.7554 5.52618C14.5498 5.44103 14.3741 5.29684 14.2505 5.11183C14.1268 4.92683 14.0609 4.70932 14.0609 4.48682C14.0609 4.18845 14.1794 3.9023 14.3904 3.69132C14.6014 3.48034 14.8875 3.36182 15.1859 3.36182ZM20.0609 13.4868V21.7368C20.0609 22.0352 19.9423 22.3213 19.7314 22.5323C19.5204 22.7433 19.2342 22.8618 18.9359 22.8618C18.6375 22.8618 18.3514 22.7433 18.1404 22.5323C17.9294 22.3213 17.8109 22.0352 17.8109 21.7368V14.5406C15.4746 14.2246 14.629 12.9196 13.9315 11.8443C13.7862 11.6203 13.6456 11.4028 13.4937 11.1993L12.5993 13.2618L15.8421 15.5709C15.9875 15.6753 16.1058 15.8128 16.1873 15.9721C16.2689 16.1314 16.3112 16.3079 16.3109 16.4868V21.7368C16.3109 22.0352 16.1923 22.3213 15.9814 22.5323C15.7704 22.7433 15.4842 22.8618 15.1859 22.8618C14.8875 22.8618 14.6014 22.7433 14.3904 22.5323C14.1794 22.3213 14.0609 22.0352 14.0609 21.7368V17.0653L11.6824 15.3665L8.71712 22.1849C8.66089 22.3243 8.57732 22.451 8.47132 22.5575C8.36533 22.6641 8.23906 22.7483 8.09999 22.8052C7.96091 22.8621 7.81183 22.8906 7.66156 22.889C7.51129 22.8873 7.36287 22.8556 7.22507 22.7957C7.08726 22.7357 6.96286 22.6488 6.85922 22.54C6.75557 22.4311 6.67477 22.3027 6.6216 22.1621C6.56843 22.0215 6.54395 21.8718 6.54962 21.7216C6.55529 21.5714 6.591 21.4239 6.65462 21.2878L12.0471 8.88369C12.1084 8.74263 12.1979 8.61561 12.3102 8.51051C12.4224 8.4054 12.5551 8.32442 12.6998 8.27259C12.8446 8.22075 12.9985 8.19915 13.152 8.20912C13.3055 8.2191 13.4553 8.26043 13.5921 8.33057C13.8895 8.48489 14.1677 8.67369 14.4209 8.89307C15.0565 9.44526 15.4606 10.0678 15.8168 10.6171C16.5237 11.7056 16.9484 12.3618 18.9359 12.3618C19.2342 12.3618 19.5204 12.4803 19.7314 12.6913C19.9423 12.9023 20.0609 13.1884 20.0609 13.4868ZM6.99212 14.4131L4.61743 13.3931C4.34437 13.2749 4.12921 13.0535 4.01905 12.7771C3.90888 12.5007 3.91269 12.192 4.02962 11.9184L6.27962 6.66838C6.39774 6.39531 6.61922 6.18016 6.8956 6.07C7.17197 5.95983 7.48073 5.96363 7.75431 6.08057L10.1552 7.11182C10.3008 7.16285 10.4343 7.24325 10.5474 7.34804C10.6606 7.45283 10.751 7.57977 10.813 7.72097C10.875 7.86217 10.9074 8.01461 10.908 8.16883C10.9086 8.32305 10.8776 8.47576 10.8167 8.61746C10.7558 8.75917 10.6665 8.88684 10.5542 8.99256C10.4419 9.09827 10.3091 9.17977 10.1639 9.232C10.0188 9.28422 9.86454 9.30604 9.71063 9.29612C9.55673 9.2862 9.40651 9.24474 9.26931 9.17432L7.90149 8.58932L6.53837 11.7712L7.87806 12.3449C8.01526 12.4022 8.13976 12.486 8.24437 12.5916C8.34898 12.6972 8.43163 12.8225 8.48752 12.9603C8.54342 13.098 8.57147 13.2455 8.57004 13.3941C8.56861 13.5427 8.53774 13.6896 8.4792 13.8263C8.42067 13.9629 8.33563 14.0866 8.22901 14.1902C8.12239 14.2938 7.9963 14.3752 7.85802 14.4298C7.71974 14.4843 7.57202 14.5109 7.4234 14.5081C7.27477 14.5052 7.12819 14.4729 6.99212 14.4131Z"/>
</svg>

<svg viewBox="0 0 24 24" xmlns="http://www.w3.org/2000/svg" aria-hidden="true" fill="currentColor"><path d="M15.186 7.862a3.375 3.375 0 1 0 0-6.75 3.375 3.375 0 0 0 0 6.75m0-4.5a1.125 1.125 0 1 1 0 2.25 1.125 1.125 0 0 1 0-2.25m4.875 10.125v8.25a1.125 1.125 0 0 1-2.25 0V14.54c-2.336-.316-3.182-1.621-3.88-2.697-.145-.224-.285-.441-.437-.645l-.895 2.063 3.243 2.309a1.12 1.12 0 0 1 .469.916v5.25a1.125 1.125 0 0 1-2.25 0v-4.672l-2.379-1.699-2.965 6.819a1.124 1.124 0 1 1-2.062-.897l5.392-12.404a1.125 1.125 0 0 1 1.545-.553q.447.232.829.562c.636.552 1.04 1.175 1.396 1.724.707 1.089 1.131 1.745 3.119 1.745a1.125 1.125 0 0 1 1.125 1.125m-13.069.926-2.375-1.02a1.125 1.125 0 0 1-.587-1.475l2.25-5.25a1.125 1.125 0 0 1 1.474-.587l2.401 1.03a1.124 1.124 0 1 1-.886 2.063L7.901 8.59l-1.363 3.182 1.34.574a1.127 1.127 0 0 1 .351 1.845 1.125 1.125 0 0 1-1.237.223"/></svg>
